X: 35309
T: Rose Tree, The
R: polka
M: 2/4
K: Dmajor
f/e/|:dB AF|A>B AB/c/|d2 f/e/d/e/|fe ef/e/|
dB AF|A>B AB/c/|d2 f/e/d/e/|1 fd df/e/:|2 fd de||
|:fe fg|a2 gf|eb ba|be ef/e/|
dB AF|A>B AB|d2 f/e/d/e/|1 fd de:|2 fd df/e/||

